X:80
T:Mengie of McBride's Hill
C:Lou Snider
M:4/4
L:1/8
Z:abc by Bruce Osborne - bosborne@kos.net
K:C
E>D | C>DE>F G>cB>c | A>Bc>A G2c>B | A>GF>E D>cB>A | B>AG>^F G>=FE>D |
C>DE>F G>cB>c | A>Bc>A G2c>B | A>FA>c B>GB>d | c2e2 c2 :|
K:G
|: B>c | d2B>d e>dc>B | c2A>c d>cB>A | B2G>B c>BA>G | A>GF>E D2 (3ABc |
d2B>d e>dc>B | c2A>c d>cB>A | B2G>B c>AF>D | G2B2 G2 :|
